Collapse/img/game_icons/icon_warzone.svg

<svg width="20" height="14" viewBox="0 0 20 14" fill="none" xmlns="http://www.w3.org/2000/svg">
<path fill-rule="evenodd" clip-rule="evenodd" d="M16.5861 3.25102L16.4909 3.46852L14.3752 8.32216C14.0367 9.11202 13.677 9.97056 13.3174 10.7375C13 11.4015 13 11.3442 13 12.1913C13 12.7866 13 13.3933 13 13.9886L19.9817 14V11.0809H16.2475L18.469 5.96402C18.8392 5.09403 19.2095 4.25838 19.5903 3.39983C19.8865 2.72445 19.9817 2.78168 19.9817 1.90024C19.9817 1.36222 20.0346 0.492232 19.9605 0H13.0106L13 2.91905L16.7341 2.9305L16.5861 3.25102Z" fill="#515B76"/>
<path fill-rule="evenodd" clip-rule="evenodd" d="M0.722725 7.78793L0.734075 7.93638L1.5514 13.9886L3.68552 14H5.30881L5.88774 5.88091C5.91045 5.58401 5.84234 5.53834 6.09207 5.5155L6.70507 14H10.4625C10.6782 12.938 10.7576 11.6591 10.9165 10.5742C11.0868 9.40946 11.995 2.86623 11.995 1.99837C12.0063 1.34747 11.995 0.685154 11.995 0.0342563L9.2592 0.01142C9.19109 1.39315 9.06622 2.79772 8.96405 4.17945L8.70296 7.83361C8.68026 8.11909 8.75972 8.23328 8.53269 8.29037L7.88564 0H4.09418L3.91255 2.69494C3.9012 2.82056 3.9239 3.06036 3.84444 3.11745C3.91255 3.50571 3.60605 7 3.5493 7.99347C3.53794 8.25612 3.58335 8.1876 3.43578 8.27896C3.29956 8.19902 3.35632 8.43882 3.31091 7.84502C3.29956 7.67373 3.28821 7.50245 3.2655 7.34258C3.18604 6.3491 2.81144 0.342576 2.72062 0.0228368L0.0075677 0C0.0075677 2.1354 -0.0605421 1.88418 0.211899 4.00816C0.382174 5.27569 0.575153 6.53181 0.722725 7.78793Z" fill="#515B76"/>
</svg>

<svg width="20" height="14" fill="none" xmlns="http://www.w3.org/2000/svg"><path fill-rule="evenodd" clip-rule="evenodd" d="M16.586 3.251l-.095.218-2.116 4.853c-.338.79-.698 1.649-1.058 2.416-.317.664-.317.606-.317 1.453v1.798l6.982.011v-2.92h-3.735l2.222-5.116c.37-.87.74-1.706 1.121-2.564.297-.676.392-.618.392-1.5 0-.538.053-1.408-.021-1.9h-6.95L13 2.919l3.734.011-.148.321zM.723 7.788l.011.148.817 6.053L3.686 14h1.623l.579-8.12c.022-.296-.046-.342.204-.364L6.705 14h3.758c.215-1.062.295-2.34.454-3.426.17-1.165 1.078-7.708 1.078-8.576.011-.65 0-1.313 0-1.964L9.259.011c-.068 1.382-.193 2.787-.295 4.168l-.261 3.655c-.023.285.057.4-.17.456L7.886 0H4.094l-.181 2.695c-.012.126.01.365-.069.422.069.389-.238 3.883-.295 4.876-.011.263.034.195-.113.286-.136-.08-.08.16-.125-.434a6.875 6.875 0 00-.046-.502c-.079-.994-.454-7-.544-7.32L.008 0c0 2.135-.069 1.884.204 4.008.17 1.268.363 2.524.51 3.78z" fill="#515B76"/></svg>
